SVG_Azure_All/Azure Defender.svg

<?xml version="1.0" encoding="UTF-8" standalone="no"?>
<!-- Generated by Microsoft Visio, SVG Export Azure Defender.svg Page-1 -->

<svg
   xmlns:dc="http://purl.org/dc/elements/1.1/"
   xmlns:cc="http://creativecommons.org/ns#"
   xmlns:rdf="http://www.w3.org/1999/02/22-rdf-syntax-ns#"
   xmlns:svg="http://www.w3.org/2000/svg"
   xmlns="http://www.w3.org/2000/svg"
   xmlns:sodipodi="http://sodipodi.sourceforge.net/DTD/sodipodi-0.dtd"
   xmlns:inkscape="http://www.inkscape.org/namespaces/inkscape"
   width="0.6298604in"
   height="0.78730655in"
   viewBox="0 0 45.350001 56.685996"
   xml:space="preserve"
   class="st5"
   version="1.1"
   id="svg51"
   sodipodi:docname="Azure Defender.svg"
   style="font-size:12px;overflow:visible;color-interpolation-filters:sRGB;fill:none;fill-rule:evenodd;stroke-linecap:square;stroke-miterlimit:3"
   inkscape:version="0.92.5 (2060ec1f9f, 2020-04-08)"><metadata
   id="metadata55"><rdf:RDF><cc:Work
       rdf:about=""><dc:format>image/svg+xml</dc:format><dc:type
         rdf:resource="http://purl.org/dc/dcmitype/StillImage" /></cc:Work></rdf:RDF></metadata><sodipodi:namedview
   pagecolor="#ffffff"
   bordercolor="#666666"
   borderopacity="1"
   objecttolerance="10"
   gridtolerance="10"
   guidetolerance="10"
   inkscape:pageopacity="0"
   inkscape:pageshadow="2"
   inkscape:window-width="640"
   inkscape:window-height="480"
   id="namedview53"
   showgrid="false"
   inkscape:zoom="1.4650115"
   inkscape:cx="30.236232"
   inkscape:cy="35.18854"
   inkscape:window-x="0"
   inkscape:window-y="0"
   inkscape:window-maximized="0"
   inkscape:current-layer="svg51" />
	<style
   type="text/css"
   id="style2">
	<![CDATA[
		.st1 {fill:#76bc2d;stroke:none;stroke-linecap:butt;stroke-width:30.1093}
		.st2 {fill:url(#grad0-7);stroke:none;stroke-linecap:butt;stroke-width:30.1093}
		.st3 {fill:#ffffff}
		.st4 {fill:#ffffff;stroke:none;stroke-linecap:butt;stroke-width:20.4741}
		.st5 {fill:none;fill-rule:evenodd;font-size:12px;overflow:visible;stroke-linecap:square;stroke-miterlimit:3}
	]]>
	</style>

	<defs
   id="Patterns_And_Gradients">
		<linearGradient
   id="grad0-7"
   x1="0"
   y1="62.411152"
   x2="44.09462"
   y2="62.411152"
   gradientTransform="scale(0.88151344,1.1344126)"
   gradientUnits="userSpaceOnUse">
			<stop
   offset="0"
   stop-color="#5e9624"
   stop-opacity="1"
   id="stop4" />
			<stop
   offset="0.32"
   stop-color="#639d26"
   stop-opacity="1"
   id="stop6" />
			<stop
   offset="0.795"
   stop-color="#6fb12a"
   stop-opacity="1"
   id="stop8" />
			<stop
   offset="1"
   stop-color="#76bc2d"
   stop-opacity="1"
   id="stop10" />
		</linearGradient>
	</defs>
	<g
   id="g49"
   transform="translate(-30.1093,-30.114449)">
		<title
   id="title14">Page-1</title>
		<g
   id="group8206-1"
   transform="translate(30.1093,-34.0157)">
			<title
   id="title16">Azure Defender</title>
			<g
   id="shape8207-2">
				<title
   id="title18">path4</title>
				<path
   d="m 45.35,90.59 c 0,15.24 -18.01,27.51 -21.93,30.01 a 1.4268,1.46886 0 0 1 -1.49,0 C 18.01,118.11 0,105.84 0,90.59 V 72.25 C 0,71.87 0.15,71.5 0.41,71.23 a 1.40177,1.44309 0 0 1 0.98,-0.44 c 14.01,-0.38 10.79,-6.66 21.29,-6.66 10.5,0 7.27,6.28 21.29,6.66 a 1.40177,1.44309 0 0 1 0.97,0.43 1.43181,1.47401 0 0 1 0.41,1.03 z"
   class="st1"
   id="path20"
   inkscape:connector-curvature="0"
   style="fill:#76bc2d;stroke:none;stroke-width:30.10930061;stroke-linecap:butt" />
			</g>
			<g
   id="shape8208-4"
   transform="translate(3.02851,-3.65402)">
				<title
   id="title23">path6-0-7</title>
				<path
   d="m 38.87,94.15 c 0,13.45 -15.44,24.27 -18.79,26.48 a 1.19401,1.2292 0 0 1 -1.28,0 C 15.44,118.43 0,107.61 0,94.15 V 77.97 C 0,77.63 0.12,77.3 0.35,77.06 a 1.18399,1.2189 0 0 1 0.84,-0.38 c 12.01,-0.33 9.25,-5.88 18.25,-5.88 9,0 6.23,5.55 18.24,5.88 a 1.18399,1.2189 0 0 1 0.84,0.38 c 0.22,0.24 0.35,0.56 0.35,0.9 z"
   class="st2"
   id="path25"
   inkscape:connector-curvature="0"
   style="fill:url(#grad0-7);stroke:none;stroke-width:30.10930061;stroke-linecap:butt" />
			</g>
			<g
   id="shape8209-8"
   transform="translate(13.7905,-22.6348)">
				<title
   id="title28">path8-3-4-0-3</title>
				<path
   d="m 16.6,113.8 c -0.93,1.17 -1.86,2.34 -2.52,3.69 l -1.26,2.61 a 1.26676,1.30411 0 0 1 -1.14,0.72 H 5.86 A 1.26676,1.30411 0 0 1 4.72,120.1 L 3.46,117.48 C 2.8,116.14 1.87,114.96 0.94,113.79 0.63,113.39 0.31,112.99 0,112.58 a 11.0842,11.4109 0 1 1 17.54,0 c -0.31,0.41 -0.62,0.81 -0.94,1.22 z M 1.36,102.79 a 1.3004861,1.3388258 -180 0 0 2.33,1.19 7.78747,8.01705 0 0 1 3.47,-3.59 A 1.2998617,1.3381793 -180 0 0 5.99,98 10.3833,10.6894 -180 0 0 1.36,102.79 Z"
   class="st3"
   id="path30"
   inkscape:connector-curvature="0"
   style="fill:#ffffff" />
			</g>
			<g
   id="shape8210-11"
   transform="translate(16.983,-19.184)">
				<title
   id="title33">rect944-0</title>
				<path
   d="m 0,119.91 a 0.87973,0.905664 -180 0 0 0.87971,0.90564 L 10.25,120.82 a 0.87973,0.905664 -180 0 0 0.87971,-0.90564 L 11.13,119.73 a 0.87973,0.905664 -180 0 0 -0.87971,-0.90564 L 0.88,118.82 a 0.87973,0.905664 -180 0 0 -0.87971,0.90564 z"
   class="st4"
   id="path35"
   inkscape:connector-curvature="0"
   style="fill:#ffffff;stroke:none;stroke-width:20.47410011;stroke-linecap:butt" />
			</g>
			<g
   id="shape8211-13"
   transform="translate(17.0103,-16.3886)">
				<title
   id="title38">rect944-5-9</title>
				<path
   d="m 0,119.91 a 0.87973,0.905664 -180 0 0 0.87971,0.90564 L 10.25,120.82 a 0.87973,0.905664 -180 0 0 0.87971,-0.90564 L 11.13,119.73 a 0.87973,0.905664 -180 0 0 -0.87971,-0.90564 L 0.88,118.82 a 0.87973,0.905664 -180 0 0 -0.87971,0.90564 z"
   class="st4"
   id="path40"
   inkscape:connector-curvature="0"
   style="fill:#ffffff;stroke:none;stroke-width:20.47410011;stroke-linecap:butt" />
			</g>
			<g
   id="shape8212-15"
   transform="translate(19.3035,-12.9634)">
				<title
   id="title43">path15-9-5-3</title>
				<path
   d="m 0,118.91 a 3.69386,3.80275 -180 0 0 6.4,0 z"
   class="st3"
   id="path45"
   inkscape:connector-curvature="0"
   style="fill:#ffffff" />
			</g>
		</g>
	</g>
</svg>

<?xml version="1.0" encoding="UTF-8" standalone="no"?>
<!DOCTYPE svg PUBLIC "-//W3C//DTD SVG 1.1//EN" "http://www.w3.org/Graphics/SVG/1.1/DTD/svg11.dtd">
<!-- Generated by Microsoft Visio, SVG Export Azure Defender.svg Page-1 -->
<svg xmlns="http://www.w3.org/2000/svg" xmlns:xlink="http://www.w3.org/1999/xlink" xmlns:ev="http://www.w3.org/2001/xml-events"
		width="1.46629in" height="1.67803in" viewBox="0 0 105.573 120.818" xml:space="preserve" color-interpolation-filters="sRGB"
		class="st5">
	<style type="text/css">
	<![CDATA[
		.st1 {fill:#76bc2d;stroke:none;stroke-linecap:butt;stroke-width:30.1093}
		.st2 {fill:url(#grad0-7);stroke:none;stroke-linecap:butt;stroke-width:30.1093}
		.st3 {fill:#ffffff}
		.st4 {fill:#ffffff;stroke:none;stroke-linecap:butt;stroke-width:20.4741}
		.st5 {fill:none;fill-rule:evenodd;font-size:12px;overflow:visible;stroke-linecap:square;stroke-miterlimit:3}
	]]>
	</style>

	<defs id="Patterns_And_Gradients">
		<linearGradient id="grad0-7" x1="0" y1="0" x2="1" y2="0" gradientTransform="rotate(-90.788764821331 0.5 0.5)">
			<stop offset="0" stop-color="#5e9624" stop-opacity="1"/>
			<stop offset="0.32" stop-color="#639d26" stop-opacity="1"/>
			<stop offset="0.795" stop-color="#6fb12a" stop-opacity="1"/>
			<stop offset="1" stop-color="#76bc2d" stop-opacity="1"/>
		</linearGradient>
	</defs>
	<g>
		<title>Page-1</title>
		<g id="group8011-1" transform="translate(30.1093,-34.0157)">
			<title>Azure Defender</title>
			<g id="shape8012-2">
				<title>path4</title>
				<path d="M45.35 90.59 C45.35 105.83 27.34 118.1 23.42 120.6 A1.4268 1.46886 0 0 1 21.93 120.6 C18.01 118.11 0 105.84
							 0 90.59 L0 72.25 C0 71.87 0.15 71.5 0.41 71.23 A1.40177 1.44309 0 0 1 1.39 70.79 C15.4 70.41 12.18 64.13
							 22.68 64.13 C33.18 64.13 29.95 70.41 43.97 70.79 A1.40177 1.44309 0 0 1 44.94 71.22 A1.43181 1.47401
							 0 0 1 45.35 72.25 L45.35 90.59 L45.35 90.59 Z" class="st1"/>
			</g>
			<g id="shape8013-4" transform="translate(3.02851,-3.65402)">
				<title>path6-0-7</title>
				<path d="M38.87 94.15 C38.87 107.6 23.43 118.42 20.08 120.63 A1.19401 1.2292 0 0 1 18.8 120.63 C15.44 118.43 0 107.61
							 0 94.15 L0 77.97 C0 77.63 0.12 77.3 0.35 77.06 A1.18399 1.2189 0 0 1 1.19 76.68 C13.2 76.35 10.44 70.8
							 19.44 70.8 C28.44 70.8 25.67 76.35 37.68 76.68 A1.18399 1.2189 0 0 1 38.52 77.06 C38.74 77.3 38.87 77.62
							 38.87 77.96 L38.87 94.15 Z" class="st2"/>
			</g>
			<g id="shape8014-8" transform="translate(13.7905,-22.6348)">
				<title>path8-3-4-0-3</title>
				<path d="M16.6 113.8 C15.67 114.97 14.74 116.14 14.08 117.49 L12.82 120.1 A1.26676 1.30411 0 0 1 11.68 120.82 L5.86
							 120.82 A1.26676 1.30411 0 0 1 4.72 120.1 L3.46 117.48 C2.8 116.14 1.87 114.96 0.94 113.79 C0.63 113.39
							 0.31 112.99 0 112.58 A11.0842 11.4109 0 1 1 17.54 112.58 C17.23 112.99 16.92 113.39 16.6 113.8 L16.6
							 113.8 ZM1.36 102.79 A1.29846 1.33674 -180 0 0 3.69 103.98 A7.78747 8.01705 0 0 1 7.16 100.39 A1.29791
							 1.33617 -180 0 0 5.99 98 A10.3833 10.6894 -180 0 0 1.36 102.79 Z" class="st3"/>
			</g>
			<g id="shape8015-11" transform="translate(16.983,-19.184)">
				<title>rect944-0</title>
				<path d="M0 119.91 a0.87973 0.905664 -180 0 0 0.87971 0.905643 L10.25 120.82 a0.87973 0.905664 -180 0 0 0.87971 -0.905643
							 L11.13 119.73 a0.87973 0.905664 -180 0 0 -0.87971 -0.905643 L0.88 118.82 a0.87973 0.905664 -180 0 0
							 -0.87971 0.905643 L0 119.91 Z" class="st4"/>
			</g>
			<g id="shape8016-13" transform="translate(17.0103,-16.3886)">
				<title>rect944-5-9</title>
				<path d="M0 119.91 a0.87973 0.905664 -180 0 0 0.87971 0.905643 L10.25 120.82 a0.87973 0.905664 -180 0 0 0.87971 -0.905643
							 L11.13 119.73 a0.87973 0.905664 -180 0 0 -0.87971 -0.905643 L0.88 118.82 a0.87973 0.905664 -180 0 0
							 -0.87971 0.905643 L0 119.91 Z" class="st4"/>
			</g>
			<g id="shape8017-15" transform="translate(19.3035,-12.9634)">
				<title>path15-9-5-3</title>
				<path d="M-0 118.91 A3.69386 3.80275 -180 0 0 6.4 118.91 L0 118.91 Z" class="st3"/>
			</g>
		</g>
	</g>
</svg>
